X: 34369
T: Revenge Of The Smelly Whistle, The
R: reel
M: 4/4
K: Eminor
BG|:~E3B AFDF|~E3B A2FD|~E3B ABde|1 fedB AFBF:|2 fedB AFBA||
Begf eBBA|Bdgf eBBA|BF~F2 ~B3F|1 GFE^A B2cB:|2 GAB^d e2||

